X: 1
T: Angus Polka #1
T: Cameron Men's Polka #1
D: Boys of the Lough, Farewell and Remember Me
Z: Nigel Gatherer scots-l 2002-9-3 (chords by John Chambers)
M: 2/4
L: 1/16
K: D
B-\
|: "D"A2f2 "G"B2g2 | "D"A2f2 f2ef \
|1,3 "A7"gfed cdef | "E7"edcB "A7"AGFG \
:|2,4 "Em"gfed "A7"cABc | "D"d2f2 d4 :|
|: "D"F2A2 ABAF | "G"G2B2 "Em"B2cB \
|1,3 "A7"A2cB AGFE | "D"DFAB "A7"A2AG \
:|2,4 "A7"ABcB AGFE | "D"D2F2 D4 :|
